X: 121
T: the First of August
%%VWML:Wrights-3753-p61-0
F: http://www.vwml.org/record/Wrights/3753/p61
%R: reel
B: Daniel Wright "Wright's Compleat Collection of Celebrated Country Dances" 1740 p.61
S: http://library.efdss.org/cgi-bin/dancebooks.cgi
Z: 2014 John Chambers <jc:trillian.mit.edu>
N: Repeats modified to match the "Each strain twice" instruction.
M: 2/2 % Actually just "2"
L: 1/8
K: D
%-------------------------
|:\
A2A2 F2GA | B2B2 A4 |\
BcdB cdec | fgfe d4 :|\
|:\
f2gf e2dc | dfed c2BA |
Bcde cdef | defg e4 |\
A2A2 F2GA | B2B2 A4 |\
Bcd2 cde2 | fgfe d4 :|
%-------------------------
%%center Note: Each strain twice.
%%begintext align
%% The 1st Cu. clap and cast of .| Then clap & cast
%% up :| The 1st Man goes of the outside the 3d Wo. %% and the 1st Wo. off the Inside the 2d Wo. at the same %% time, then 1st Man cast up behind the 3d Man &
%% the 1st Wo. cast off behind the 2d Wo. at the
%% same time .| Then right and left with the 2d Cu.
%% quite round and turn your Partner :|
%%endtext
%-------------------------
%%sep 2 4 300
T: Drown Drowth
T: Longways for as many &c.
%R: slip-jig
B: Daniel Wright "Wright's Compleat Collection of Celebrated Country Dances" 1740 p.61
S: http://library.efdss.org/cgi-bin/dancebooks.cgi
Z: 2014 John Chambers <jc:trillian.mit.edu>
N: Repeats modified to match the "Each strain twice" instruction.
M: 9/8
L: 1/8
K: Bb
%-------------------------
|:\
E |\
(D/E/)FD BFE D2B, | (D/E/)FD EDD C2E |\
(D/E/)FD Bcd D2B, | (D/E/)FE DB,B, B,2 :|
|: F |\
BdB dBg fdB | A2F A/B/cc c2F |\
B>cd/e/ fga bag | fbd dcB B2 :|
%-------------------------
%%center Each strain twice.
%%begintext align
%% The 1st and 2d Cu. set all four and turn single .|
%% Then both Cu. Back to back with their Partners
%% :| then the 1st Cu. cross over and turn,
%% and the 2d Cu. cast off and turn .| Then
%% hands all four quite round, and each turn
%% their Partner :|
%%endtext
%-------------------------
%%sep 2 4 300
